flaticon/design/square-15.svg

<svg xmlns="http://www.w3.org/2000/svg" width="32" height="32" viewBox="0 0 24 24">
    <path d="M10.398438 0L10.398438 3.199219 13.601562 3.199219 13.601562 0zM11.199219 2.398438L11.199219.800781 12.800781.800781 12.800781 2.398438zM20.800781 0L20.800781 3.199219 22 3.199219 22 3.601562C22 3.820312 22.179688 4 22.398438 4 22.621094 4 22.800781 3.820312 22.800781 3.601562L22.800781 3.199219 24 3.199219 24 0zM23.199219 2.398438L21.601562 2.398438 21.601562.800781 23.199219.800781zM6.800781 22L6 22C5.777344 22 5.601562 22.179688 5.601562 22.398438 5.601562 22.621094 5.777344 22.800781 6 22.800781L6.800781 22.800781C7.019531 22.800781 7.199219 22.621094 7.199219 22.398438 7.199219 22.179688 7.019531 22 6.800781 22zM7.601562 1.199219L6.800781 1.199219C6.578125 1.199219 6.398438 1.378906 6.398438 1.601562 6.398438 1.820312 6.578125 2 6.800781 2L7.601562 2C7.820312 2 8 1.820312 8 1.601562 8 1.378906 7.820312 1.199219 7.601562 1.199219zM9.199219 22L8.398438 22C8.179688 22 8 22.179688 8 22.398438 8 22.621094 8.179688 22.800781 8.398438 22.800781L9.199219 22.800781C9.421875 22.800781 9.601562 22.621094 9.601562 22.398438 9.601562 22.179688 9.421875 22 9.199219 22zM1.601562 16.800781C1.378906 16.800781 1.199219 16.980469 1.199219 17.199219L1.199219 18C1.199219 18.222656 1.378906 18.398438 1.601562 18.398438 1.820312 18.398438 2 18.222656 2 18L2 17.199219C2 16.980469 1.820312 16.800781 1.601562 16.800781zM2 5.199219C2 4.980469 1.820312 4.800781 1.601562 4.800781 1.378906 4.800781 1.199219 4.980469 1.199219 5.199219L1.199219 6C1.199219 6.222656 1.378906 6.398438 1.601562 6.398438 1.820312 6.398438 2 6.222656 2 6zM4.398438 22L3.601562 22C3.378906 22 3.199219 22.179688 3.199219 22.398438 3.199219 22.621094 3.378906 22.800781 3.601562 22.800781L4.398438 22.800781C4.621094 22.800781 4.800781 22.621094 4.800781 22.398438 4.800781 22.179688 4.621094 22 4.398438 22zM1.601562 7.199219C1.378906 7.199219 1.199219 7.378906 1.199219 7.601562L1.199219 8.398438C1.199219 8.621094 1.378906 8.800781 1.601562 8.800781 1.820312 8.800781 2 8.621094 2 8.398438L2 7.601562C2 7.378906 1.820312 7.199219 1.601562 7.199219zM1.199219 3.601562C1.199219 3.820312 1.378906 4 1.601562 4 1.820312 4 2 3.820312 2 3.601562L2 3.199219 3.199219 3.199219 3.199219 0 0 0 0 3.199219 1.199219 3.199219zM.800781.800781L2.398438.800781 2.398438 2.398438.800781 2.398438zM2 14.800781C2 14.578125 1.820312 14.398438 1.601562 14.398438 1.378906 14.398438 1.199219 14.578125 1.199219 14.800781L1.199219 15.601562C1.199219 15.820312 1.378906 16 1.601562 16 1.820312 16 2 15.820312 2 15.601562zM2 20.398438L2 19.601562C2 19.378906 1.820312 19.199219 1.601562 19.199219 1.378906 19.199219 1.199219 19.378906 1.199219 19.601562L1.199219 20.398438C1.199219 20.621094 1.378906 20.800781 1.601562 20.800781 1.820312 20.800781 2 20.621094 2 20.398438zM5.199219 1.199219L4.398438 1.199219C4.179688 1.199219 4 1.378906 4 1.601562 4 1.820312 4.179688 2 4.398438 2L5.199219 2C5.421875 2 5.601562 1.820312 5.601562 1.601562 5.601562 1.378906 5.421875 1.199219 5.199219 1.199219zM22.398438 17.601562C22.621094 17.601562 22.800781 17.421875 22.800781 17.199219L22.800781 16.398438C22.800781 16.179688 22.621094 16 22.398438 16 22.179688 16 22 16.179688 22 16.398438L22 17.199219C22 17.421875 22.179688 17.601562 22.398438 17.601562zM22 19.601562C22 19.820312 22.179688 20 22.398438 20 22.621094 20 22.800781 19.820312 22.800781 19.601562L22.800781 18.800781C22.800781 18.578125 22.621094 18.398438 22.398438 18.398438 22.179688 18.398438 22 18.578125 22 18.800781zM22 14L22 14.800781C22 15.019531 22.179688 15.199219 22.398438 15.199219 22.621094 15.199219 22.800781 15.019531 22.800781 14.800781L22.800781 14C22.800781 13.777344 22.621094 13.601562 22.398438 13.601562 22.179688 13.601562 22 13.777344 22 14zM22.800781 10C22.800781 9.777344 22.621094 9.601562 22.398438 9.601562 22.179688 9.601562 22 9.777344 22 10L22 10.398438 20.800781 10.398438 20.800781 13.601562 24 13.601562 24 10.398438 22.800781 10.398438zM23.199219 12.800781L21.601562 12.800781 21.601562 11.199219 23.199219 11.199219zM22.398438 6.398438C22.621094 6.398438 22.800781 6.222656 22.800781 6L22.800781 5.199219C22.800781 4.980469 22.621094 4.800781 22.398438 4.800781 22.179688 4.800781 22 4.980469 22 5.199219L22 6C22 6.222656 22.179688 6.398438 22.398438 6.398438zM14 22L13.601562 22 13.601562 20.800781 10.398438 20.800781 10.398438 24 13.601562 24 13.601562 22.800781 14 22.800781C14.222656 22.800781 14.398438 22.621094 14.398438 22.398438 14.398438 22.179688 14.222656 22 14 22zM12.800781 23.199219L11.199219 23.199219 11.199219 21.601562 12.800781 21.601562zM19.601562 1.199219L18.800781 1.199219C18.578125 1.199219 18.398438 1.378906 18.398438 1.601562 18.398438 1.820312 18.578125 2 18.800781 2L19.601562 2C19.820312 2 20 1.820312 20 1.601562 20 1.378906 19.820312 1.199219 19.601562 1.199219zM22 8.398438C22 8.621094 22.179688 8.800781 22.398438 8.800781 22.621094 8.800781 22.800781 8.621094 22.800781 8.398438L22.800781 7.601562C22.800781 7.378906 22.621094 7.199219 22.398438 7.199219 22.179688 7.199219 22 7.378906 22 7.601562zM14.800781 1.199219L14 1.199219C13.777344 1.199219 13.601562 1.378906 13.601562 1.601562 13.601562 1.820312 13.777344 2 14 2L14.800781 2C15.019531 2 15.199219 1.820312 15.199219 1.601562 15.199219 1.378906 15.019531 1.199219 14.800781 1.199219zM10 1.199219L9.199219 1.199219C8.980469 1.199219 8.800781 1.378906 8.800781 1.601562 8.800781 1.820312 8.980469 2 9.199219 2L10 2C10.222656 2 10.398438 1.820312 10.398438 1.601562 10.398438 1.378906 10.222656 1.199219 10 1.199219zM17.199219 1.199219L16.398438 1.199219C16.179688 1.199219 16 1.378906 16 1.601562 16 1.820312 16.179688 2 16.398438 2L17.199219 2C17.421875 2 17.601562 1.820312 17.601562 1.601562 17.601562 1.378906 17.421875 1.199219 17.199219 1.199219zM16.398438 22L15.601562 22C15.378906 22 15.199219 22.179688 15.199219 22.398438 15.199219 22.621094 15.378906 22.800781 15.601562 22.800781L16.398438 22.800781C16.621094 22.800781 16.800781 22.621094 16.800781 22.398438 16.800781 22.179688 16.621094 22 16.398438 22zM18.800781 22L18 22C17.777344 22 17.601562 22.179688 17.601562 22.398438 17.601562 22.621094 17.777344 22.800781 18 22.800781L18.800781 22.800781C19.019531 22.800781 19.199219 22.621094 19.199219 22.398438 19.199219 22.179688 19.019531 22 18.800781 22zM2.398438 13.601562L3.199219 13.601562 3.199219 10.398438 2 10.398438 2 10C2 9.777344 1.820312 9.601562 1.601562 9.601562 1.378906 9.601562 1.199219 9.777344 1.199219 10L1.199219 10.398438 0 10.398438 0 13.601562zM.800781 11.199219L2.398438 11.199219 2.398438 12.800781.800781 12.800781zM3.199219 20.800781L0 20.800781 0 24 3.199219 24zM2.398438 23.199219L.800781 23.199219.800781 21.601562 2.398438 21.601562zM21.601562 20.800781L20.800781 20.800781 20.800781 22 20.398438 22C20.179688 22 20 22.179688 20 22.398438 20 22.621094 20.179688 22.800781 20.398438 22.800781L20.800781 22.800781 20.800781 24 24 24 24 20.800781zM23.199219 23.199219L21.601562 23.199219 21.601562 21.601562 23.199219 21.601562zM23.199219 23.199219"/>
</svg>

<svg xmlns="http://www.w3.org/2000/svg" width="32" height="32" viewBox="0 0 24 24">
    <path d="M10.398 0v3.2h3.204V0zm.801 2.398V.801h1.602v1.597zm0 0M20.8 0v3.2H22v.402a.4.4 0 0 0 .8 0v-.403H24V0zm2.4 2.398h-1.598V.801h1.597zm0 0M6.8 22H6a.398.398 0 0 0-.398.398c0 .223.175.403.398.403h.8a.401.401 0 0 0 0-.801zm0 0M7.602 1.2H6.8a.401.401 0 0 0 0 .8h.8a.4.4 0 0 0 0-.8zm0 0M9.2 22h-.802a.4.4 0 0 0 0 .8H9.2a.401.401 0 0 0 0-.8zm0 0M1.602 16.8a.401.401 0 0 0-.403.4v.8c0 .223.18.398.403.398A.398.398 0 0 0 2 18v-.8a.4.4 0 0 0-.398-.4zm0 0M2 5.2a.4.4 0 0 0-.8 0V6c0 .223.179.398.402.398A.398.398 0 0 0 2 6zm0 0M4.398 22h-.796a.401.401 0 1 0 0 .8h.796a.401.401 0 0 0 0-.8zm0 0M1.602 7.2a.402.402 0 0 0-.403.402v.796a.401.401 0 0 0 .8 0l.001-.796a.401.401 0 0 0-.398-.403zm0 0M1.2 3.602a.401.401 0 0 0 .8 0v-.403h1.2V0H0v3.2h1.2zM.8.8h1.598v1.597H.801zm0 0M2 14.8a.401.401 0 1 0-.8 0v.802a.401.401 0 0 0 .8 0zm0 0M2 20.398v-.796a.401.401 0 1 0-.8 0v.796a.401.401 0 0 0 .8 0zm0 0M5.2 1.2h-.802a.401.401 0 0 0 0 .8H5.2a.401.401 0 1 0 0-.8zm0 0M22.398 17.602c.223 0 .403-.18.403-.403v-.8a.401.401 0 0 0-.801 0v.8c0 .223.18.403.398.403zm0 0M22 19.602a.4.4 0 0 0 .8 0V18.8a.401.401 0 0 0-.8 0zm0 0M22 14v.8a.4.4 0 0 0 .8 0V14a.398.398 0 0 0-.402-.398A.398.398 0 0 0 22 14zm0 0"/>
    <path d="M22.8 10a.398.398 0 0 0-.402-.398A.398.398 0 0 0 22 10v.398h-1.2v3.204H24v-3.204h-1.2zm.4 2.8h-1.598v-1.6h1.597zm0 0M22.398 6.398A.398.398 0 0 0 22.801 6v-.8a.401.401 0 0 0-.801 0V6c0 .223.18.398.398.398zm0 0M14 22h-.398v-1.2h-3.204V24h3.204v-1.2H14c.223 0 .398-.179.398-.402A.398.398 0 0 0 14 22zm-1.2 1.2h-1.6v-1.598h1.6zm0 0M19.602 1.2H18.8a.401.401 0 0 0 0 .8h.8a.4.4 0 0 0 0-.8zm0 0M22 8.398a.401.401 0 1 0 .8 0v-.796a.401.401 0 0 0-.8 0zm0 0M14.8 1.2H14a.398.398 0 0 0-.398.402c0 .218.175.398.398.398h.8a.4.4 0 0 0 0-.8zm0 0M10 1.2h-.8a.401.401 0 0 0 0 .8h.8c.223 0 .398-.18.398-.398A.398.398 0 0 0 10 1.199zm0 0M17.2 1.2h-.802a.401.401 0 0 0 0 .8h.801a.401.401 0 1 0 0-.8zm0 0M16.398 22h-.796a.401.401 0 1 0 0 .8h.796a.401.401 0 0 0 0-.8zm0 0M18.8 22H18a.398.398 0 0 0-.398.398c0 .223.175.403.398.403h.8a.401.401 0 0 0 0-.801zm0 0M2.398 13.602H3.2v-3.204H2V10a.398.398 0 0 0-.398-.398.398.398 0 0 0-.403.398v.398H0v3.204zM.801 11.199h1.597v1.602H.801zm0 0M3.2 20.8H0V24h3.2zm-.802 2.4H.801v-1.598h1.597zm0 0M21.602 20.8H20.8V22h-.403a.4.4 0 0 0 0 .8h.403V24H24v-3.2zm1.597 2.4h-1.597v-1.598h1.597zm0 0"/>
</svg>
